X:1
T:Title
%%score 1 { 2 | 3 }
L:1/8
Q:1/4=105
M:4/4
K:F
V:1 treble nm="Grand Piano, Soprano"
V:2 treble nm="Choir Pad, Pamplona, 87.87 D"
V:3 bass 
V:1
 [FA]>[FA] [FA]2 [EG]2 [CB]2 | [CE]2 [CG]2 [CF]4 | F>F [Fd]2 [Fd]2 [FG]2 | [FG]2 [EG]6 | %4
w: By~S.~L.~Howard * * * *||||
 [GB]>[GB] [FA]2 [EG]2 F2 | [FA]2 [Fc]2 [FB]4 | [F=B]>[FB] [Fc]2 [FA]2 [E_B]2 | [CE]2 [CF]6 | %8
w: ||||
 F>F [FB]2 [FB]2 F2 | [FB]2 [FB]2 [FA]4 | [FA]>[FB] [Fc]2 [Fc]2 [G^c]2 | [G^c]2 [Fd]6 | %12
w: ||||
 [^Fd]>[Fc] [GB]2 [GB]2 [=FA]2 | F2 [Fc]2 [FB]4 | [F=B]>[FB] [Fc]2 [FA]2 [E_B]2 | [CE]2 [CF]6- | %16
w: ||||
 [CF]2 z2 z4 |] %17
w: |
V:2
 C>C C2 C2 G,2 | B,2 B,2 A,4 | A,>A, A,2 A,2 =B,2 | =B,2[K:treble] C6 | C>C C2 B,2[K:bass] A,2 | %5
 C2 B,2 B,4 | _A,>A, =A,2 C2 G,2 | B,2 A,6 | A,>A,[K:treble] D2 D2 D2 | D2 D2 C4 | %10
 C>[K:bass]G, A,2 A,2 A,2 | A,2 A,6 | A,>[K:treble]D D2 C2 C2 | A,2[K:bass] B,2 B,4 | %14
 _A,>A, =A,2 C2 G,2 | B,2 A,6- | A,2 z2 z4 |] %17
V:3
 F,>F, F,2 C,2 E,2 | C,2 F,2 F,4 | F,>F, D,2 D,2 G,2 | G,2 C,6 | E,>E, F,2 C,2 F,2 | _E,2 D,2 D,4 | %6
 ^C,>C, =C,2 C,2 C,2 | C,2 F,6 | F,>F, B,,2 B,,2 B,,C, | D,E, F,2 F,4 | F,>F, F,2 F,2 E,2 | %11
 E,2 D,6 | D,>D, G,2 E,2 F,2 | _E,2 D,2 D,4 | ^C,>C, =C,2 C,2 C,2 | C,2 F,6- | F,2 z2 z4 |] %17

